images_sukapura_svg/cmd/sc_defineprintarea.svg

<svg viewBox="0 0 16 16" xmlns="http://www.w3.org/2000/svg" xmlns:xlink="http://www.w3.org/1999/xlink"><linearGradient id="a" gradientUnits="userSpaceOnUse" x1="7.273339" x2="7.480236" xlink:href="#b" y1="7.625454" y2="3.838238"/><linearGradient id="b" gradientTransform="translate(-25.830508 -3.59322)" gradientUnits="userSpaceOnUse" x1="14" x2="13.79661" y1="22" y2="2.135593"><stop offset="0" stop-color="#0040dd"/><stop offset="1" stop-color="#0a84ff"/></linearGradient><linearGradient id="c" gradientUnits="userSpaceOnUse" x1="9.5" x2="9.5" y1="7" y2="10"><stop offset="0" stop-color="#fff"/><stop offset=".08333334" stop-color="#fff" stop-opacity=".055147"/><stop offset="1" stop-color="#fff" stop-opacity=".247059"/><stop offset="1" stop-color="#fff" stop-opacity=".481618"/></linearGradient><linearGradient id="d" gradientUnits="userSpaceOnUse" x1="6.25" x2="6" xlink:href="#b" y1="13.5" y2="2"/><linearGradient id="e" gradientUnits="userSpaceOnUse" x1="10" x2="11.500001" y1="4" y2="2.499999"><stop offset="0" stop-color="#fff"/><stop offset=".77967989" stop-color="#f1f1f1"/><stop offset="1" stop-color="#d5d5d5"/></linearGradient><radialGradient id="f" cx="10.994179" cy="4.42844" gradientTransform="matrix(1.4 .00000004 -.00000001 1.2 -4.39185 -2.314129)" gradientUnits="userSpaceOnUse" r="5"><stop offset="0" stop-color="#d7d7d7"/><stop offset=".49894297" stop-color="#f7f7f7"/><stop offset="1" stop-color="#fff"/></radialGradient><g transform="translate(-2)"><path d="m3 1v14h10v-11.2949219l-2.695312-2.7050781z" fill="url(#f)"/><path d="m2 2v12h8v-10l-2-2zm1 1h5l1 1v9h-6z" fill="url(#d)" transform="translate(2)"/><path d="m3 0c-.554 0-1 .446-1 1v14c0 .554.446 1 1 1h10c.554 0 1-.446 1-1v-10.5-.8632812l-3.636719-3.6367188h-.863281zm0 1h6v3.5c0 .277.223.5.5.5h3.5v10h-10zm7 0 3 3h-3z" fill="#98989d"/><path d="m10 1 3 3h-3z" fill="url(#e)"/></g><g transform="matrix(.75 0 0 .75 3.75 4.75)"><rect fill="url(#a)" height="4.29661" ry="1" width="12" x="2" y="3.70339"/><path d="m4.3333333 11v3h6.6666667v-3z" fill="#fff" fill-rule="evenodd"/><path d="m3 12.333333v1.809245c0 .474857.3825649.857422.8574219.857422h7.2851561c.474857 0 1.171472-.382957 1.190755-.857422v-1.809245h-1.333333v1.666667h-6.6666667v-1.666667z" fill="#98989d"/><path d="m4.3333333 1.6666667.0000004 2.6666666 6.6666673.0000001-.000001-2.6666667z" fill="#fff" fill-rule="evenodd"/><path d="m13 10h2v1h-2z" fill="#fff"/><path d="m3.8461221.33333337c-.474857 0-.8586207.38256634-.8574219.85742193l.0112998 4.4759114h1.3333336 6.6666664 1.333334l-.0113-4.4759114c-.001199-.47485559-.382565-.85742193-.857422-.85742193zm.4872112 1.33333333h6.6666667v2.6666666h-6.6666664z" fill="#98989d"/><g stroke-width="1.333333"><path d="m.66101695 5.6666667c-.55399997 0-.99999997.446-.99999997 1v4.0000003c0 .554.446 1 .99999997 1h2.67231635 1 7.4999997 2.843566c.554 0 1-.446 1-1v-4.0000003c0-.554-.446-1-1-1h-1v2h-.5-9.8435657-1v-2z" fill="#98989d" stroke="#616165"/><path d="m1.4749089 6.5h.5l-.0225989 2.5h11.525091l.022599-2.5h.5c.277 0 .5.446.5 1v1.8333333c0 .554-.223.9999997-.5.9999997h-12.5250911c-.277 0-.5-.4459997-.5-.9999997v-1.8333333c0-.554.2231414-.9911517.5-1z" fill="none" stroke="url(#c)" stroke-opacity=".658088"/></g></g></svg>

<?xml version="1.0" encoding="UTF-8" standalone="no"?>
<svg
   xmlns:dc="http://purl.org/dc/elements/1.1/"
   xmlns:cc="http://creativecommons.org/ns#"
   xmlns:rdf="http://www.w3.org/1999/02/22-rdf-syntax-ns#"
   xmlns:svg="http://www.w3.org/2000/svg"
   xmlns="http://www.w3.org/2000/svg"
   xmlns:xlink="http://www.w3.org/1999/xlink"
   xmlns:sodipodi="http://sodipodi.sourceforge.net/DTD/sodipodi-0.dtd"
   xmlns:inkscape="http://www.inkscape.org/namespaces/inkscape"
   viewBox="0 0 16 16"
   version="1.1"
   id="svg22"
   sodipodi:docname="sc_defineprintarea.svg"
   inkscape:version="0.92.3 (2405546, 2018-03-11)"
   inkscape:export-filename="/home/rizmut/Documents/Rizmut/Github/libreoffice-style-sukapura/images_sukapura/cmd/sc_defineprintarea.png"
   inkscape:export-xdpi="96"
   inkscape:export-ydpi="96">
  <metadata
     id="metadata28">
    <rdf:RDF>
      <cc:Work
         rdf:about="">
        <dc:format>image/svg+xml</dc:format>
        <dc:type
           rdf:resource="http://purl.org/dc/dcmitype/StillImage" />
        <dc:title></dc:title>
      </cc:Work>
    </rdf:RDF>
  </metadata>
  <defs
     id="defs26">
    <linearGradient
       inkscape:collect="always"
       xlink:href="#a-3"
       id="linearGradient868"
       x1="7.2733388"
       y1="7.6254539"
       x2="7.4802356"
       y2="3.838238"
       gradientUnits="userSpaceOnUse" />
    <linearGradient
       gradientTransform="translate(-25.830508,-3.5932203)"
       id="a-3"
       gradientUnits="userSpaceOnUse"
       x1="14"
       x2="13.79661"
       y1="22"
       y2="2.1355929">
      <stop
         offset="0"
         stop-color="#0040dd"
         id="stop2-6" />
      <stop
         offset="1"
         stop-color="#0a84ff"
         id="stop4-7" />
    </linearGradient>
    <linearGradient
       id="a-8"
       gradientUnits="userSpaceOnUse"
       x1="9.5"
       x2="9.5"
       y1="7"
       y2="10">
      <stop
         offset="0"
         stop-color="#fff"
         id="stop2-9" />
      <stop
         offset=".08333334"
         stop-color="#fff"
         stop-opacity=".055147"
         id="stop4-73" />
      <stop
         offset="1"
         stop-color="#fff"
         stop-opacity=".247059"
         id="stop6-6" />
      <stop
         offset="1"
         stop-color="#fff"
         stop-opacity=".481618"
         id="stop8" />
    </linearGradient>
    <linearGradient
       inkscape:collect="always"
       xlink:href="#a-3"
       id="linearGradient876"
       x1="6.25"
       y1="13.5"
       x2="6"
       y2="2"
       gradientUnits="userSpaceOnUse" />
  </defs>
  <sodipodi:namedview
     pagecolor="#ffffff"
     bordercolor="#666666"
     borderopacity="1"
     objecttolerance="10"
     gridtolerance="10"
     guidetolerance="10"
     inkscape:pageopacity="0"
     inkscape:pageshadow="2"
     inkscape:window-width="1366"
     inkscape:window-height="685"
     id="namedview24"
     showgrid="true"
     inkscape:zoom="14.75"
     inkscape:cx="7.8509448"
     inkscape:cy="3.4685423"
     inkscape:window-x="0"
     inkscape:window-y="0"
     inkscape:window-maximized="1"
     inkscape:current-layer="svg22"
     inkscape:object-nodes="true"
     inkscape:snap-smooth-nodes="true">
    <inkscape:grid
       type="xygrid"
       id="grid823"
       spacingx="0.5"
       spacingy="0.5"
       empspacing="2" />
  </sodipodi:namedview>
  <linearGradient
     id="a"
     gradientUnits="userSpaceOnUse"
     x1="10"
     x2="11.5000006"
     y1="4"
     y2="2.4999994">
    <stop
       offset="0"
       stop-color="#fff"
       id="stop2" />
    <stop
       offset=".77967989"
       stop-color="#f1f1f1"
       id="stop4" />
    <stop
       offset="1"
       stop-color="#d5d5d5"
       id="stop6" />
  </linearGradient>
  <radialGradient
     id="b"
     cx="10.994179"
     cy="4.42844"
     gradientTransform="matrix(1.4,4e-8,-1e-8,1.2,-4.39185,-2.314129)"
     gradientUnits="userSpaceOnUse"
     r="5">
    <stop
       offset="0"
       stop-color="#d7d7d7"
       id="stop9" />
    <stop
       offset=".49894297"
       stop-color="#f7f7f7"
       id="stop11" />
    <stop
       offset="1"
       stop-color="#fff"
       id="stop13" />
  </radialGradient>
  <g
     id="g838"
     transform="translate(-2)">
    <path
       id="path16"
       d="M 3,1 V 15 H 13 V 3.7050781 L 10.304688,1 Z"
       style="fill:url(#b)"
       inkscape:connector-curvature="0" />
    <path
       style="opacity:1;fill:url(#linearGradient876);fill-opacity:1;stroke:none;stroke-width:1;stroke-linecap:round;stroke-linejoin:round;stroke-miterlimit:4;stroke-dasharray:none;stroke-opacity:1"
       d="m 2,2 v 12 h 8 V 4 L 8,2 Z m 1,1 h 5 l 1,1 v 9 H 3 Z"
       transform="translate(2)"
       id="rect865"
       inkscape:connector-curvature="0"
       sodipodi:nodetypes="cccccccccccc" />
    <path
       id="path18"
       d="M 3,0 C 2.446,0 2,0.446 2,1 v 14 c 0,0.554 0.446,1 1,1 h 10 c 0.554,0 1,-0.446 1,-1 V 4.5 3.6367188 L 10.363281,0 H 9.5 Z M 3,1 H 9 V 4.5 C 9,4.777 9.223,5 9.5,5 H 13 V 15 H 3 Z m 7,0 3,3 h -3 z"
       inkscape:connector-curvature="0"
       style="fill:#98989d" />
    <path
       id="path20"
       d="m 10,1 3,3 h -3 z"
       style="fill:url(#a)"
       inkscape:connector-curvature="0" />
  </g>
  <g
     id="g4764"
     transform="matrix(0.75,0,0,0.75,3.75,4.75)">
    <rect
       style="fill:url(#linearGradient868);fill-opacity:1"
       id="rect11"
       y="3.7033899"
       x="2"
       width="12"
       ry="1"
       height="4.2966099" />
    <path
       style="fill:#ffffff;fill-rule:evenodd"
       inkscape:connector-curvature="0"
       id="path13"
       d="m 4.3333333,11 v 3 H 11 v -3 z"
       sodipodi:nodetypes="ccccc" />
    <path
       style="fill:#98989d"
       inkscape:connector-curvature="0"
       id="path15"
       d="m 3,12.333333 v 1.809245 C 3,14.617435 3.3825649,15 3.8574219,15 h 7.2851561 c 0.474857,0 1.171472,-0.382957 1.190755,-0.857422 V 12.333333 H 11 V 14 H 4.3333333 v -1.666667 z"
       sodipodi:nodetypes="csssccccccc" />
    <path
       style="fill:#ffffff;fill-rule:evenodd"
       inkscape:connector-curvature="0"
       id="path17"
       d="m 4.3333333,1.6666667 4e-7,2.6666666 6.6666673,1e-7 L 11,1.6666667 Z"
       sodipodi:nodetypes="ccccc" />
    <path
       style="fill:#ffffff"
       inkscape:connector-curvature="0"
       id="path19"
       d="m 13,10 h 2 v 1 h -2 z" />
    <path
       style="fill:#98989d"
       inkscape:connector-curvature="0"
       id="path21"
       d="m 3.8461221,0.33333337 c -0.474857,0 -0.8586207,0.38256634 -0.8574219,0.85742193 L 3,5.6666667 H 4.3333336 11 12.333334 l -0.0113,-4.4759114 C 12.320835,0.71589971 11.939469,0.33333337 11.464612,0.33333337 Z M 4.3333333,1.6666667 H 11 V 4.3333333 H 4.3333336 Z"
       sodipodi:nodetypes="ssccccsssccccc" />
    <path
       style="fill:#98989d;stroke:#616165;stroke-width:1.33333337;stroke-miterlimit:4;stroke-dasharray:none"
       inkscape:connector-curvature="0"
       id="path23"
       d="m 0.66101695,5.6666667 c -0.55399997,0 -0.99999997,0.446 -0.99999997,1 v 4.0000003 c 0,0.554 0.446,1 0.99999997,1 l 2.67231635,0 h 1 7.4999997 2.843566 c 0.554,0 1,-0.446 1,-1 V 6.6666667 c 0,-0.554 -0.446,-1 -1,-1 h -1 v 2 h -0.5 -9.8435657 -1 v -2 z"
       sodipodi:nodetypes="sssscccssssccccccs" />
    <path
       style="fill:none;stroke:url(#a-8);stroke-width:1.33333337;stroke-miterlimit:4;stroke-dasharray:none;stroke-opacity:0.65808835"
       inkscape:connector-curvature="0"
       id="path25"
       d="m 1.4749089,6.5 h 0.5 L 1.95231,9 H 13.477401 L 13.5,6.5 H 14 c 0.277,0 0.5,0.446 0.5,1 v 1.8333333 c 0,0.554 -0.223,0.9999997 -0.5,0.9999997 H 1.4749089 c -0.277,0 -0.5,-0.4459997 -0.5,-0.9999997 V 7.5 c 0,-0.554 0.2231414,-0.9911517 0.5,-1 z"
       sodipodi:nodetypes="sccccssssssss" />
  </g>
</svg>
